; G-Code generated by Simplify3D(R) Version 4.1.2
; Mar 2, 2023 at 1:25:36 PM
; Settings Summary
;   processName,Process1
;   applyToModels,Remote_Kill_Switch_Droid v2
;   profileName,LulzBot TAZ 5 (modified)
;   profileVersion,2021-08-27 09:31:58
;   baseProfile,
;   printMaterial,PETG
;   printQuality,Medium
;   printExtruders,
;   extruderName,Primary Extruder
;   extruderToolheadNumber,0
;   extruderDiameter,0.5
;   extruderAutoWidth,1
;   extruderWidth,0.6
;   extrusionMultiplier,1.01
;   extruderUseRetract,1
;   extruderRetractionDistance,0.9
;   extruderExtraRestartDistance,0
;   extruderRetractionZLift,0.6
;   extruderRetractionSpeed,2600
;   extruderUseCoasting,0
;   extruderCoastingDistance,0.2
;   extruderUseWipe,0
;   extruderWipeDistance,5
;   primaryExtruder,0
;   layerHeight,0.18
;   topSolidLayers,3
;   bottomSolidLayers,3
;   perimeterOutlines,3
;   printPerimetersInsideOut,1
;   startPointOption,1
;   startPointOriginX,0
;   startPointOriginY,0
;   sequentialIslands,0
;   spiralVaseMode,0
;   firstLayerHeightPercentage,90
;   firstLayerWidthPercentage,100
;   firstLayerUnderspeed,0.13
;   useRaft,0
;   raftExtruder,0
;   raftTopLayers,2
;   raftBaseLayers,1
;   raftOffset,3
;   raftSeparationDistance,0.25
;   raftTopInfill,100
;   aboveRaftSpeedMultiplier,0.3
;   useSkirt,1
;   skirtExtruder,0
;   skirtLayers,1
;   skirtOutlines,3
;   skirtOffset,2.5
;   usePrimePillar,0
;   primePillarExtruder,999
;   primePillarWidth,12
;   primePillarLocation,7
;   primePillarSpeedMultiplier,1
;   useOozeShield,0
;   oozeShieldExtruder,999
;   oozeShieldOffset,2
;   oozeShieldOutlines,1
;   oozeShieldSidewallShape,1
;   oozeShieldSidewallAngle,30
;   oozeShieldSpeedMultiplier,1
;   infillExtruder,0
;   internalInfillPattern,Full Honeycomb
;   externalInfillPattern,Rectilinear
;   infillPercentage,15
;   outlineOverlapPercentage,15
;   infillExtrusionWidthPercentage,203
;   minInfillLength,5
;   infillLayerInterval,1
;   internalInfillAngles,0,120,-120
;   overlapInternalInfillAngles,0
;   externalInfillAngles,45,-45
;   generateSupport,0
;   supportExtruder,0
;   supportInfillPercentage,20
;   supportExtraInflation,0.2
;   supportBaseLayers,1
;   denseSupportExtruder,0
;   denseSupportLayers,0
;   denseSupportInfillPercentage,30
;   supportLayerInterval,2
;   supportHorizontalPartOffset,0.4
;   supportUpperSeparationLayers,1
;   supportLowerSeparationLayers,1
;   supportType,0
;   supportGridSpacing,4
;   maxOverhangAngle,20
;   supportAngles,0
;   temperatureName,Primary Extruder,Heated Bed
;   temperatureNumber,0,1
;   temperatureSetpointCount,1,2
;   temperatureSetpointLayers,1,1,3
;   temperatureSetpointTemperatures,225,80,75
;   temperatureStabilizeAtStartup,1,1
;   temperatureHeatedBed,0,1
;   fanLayers,1,2
;   fanSpeeds,50,75
;   blipFanToFullPower,1
;   adjustSpeedForCooling,1
;   minSpeedLayerTime,15
;   minCoolingSpeedSlowdown,20
;   increaseFanForCooling,0
;   minFanLayerTime,45
;   maxCoolingFanSpeed,100
;   increaseFanForBridging,0
;   bridgingFanSpeed,100
;   use5D,1
;   relativeEdistances,0
;   allowEaxisZeroing,1
;   independentExtruderAxes,0
;   includeM10123,0
;   stickySupport,1
;   applyToolheadOffsets,0
;   gcodeXoffset,0
;   gcodeYoffset,0
;   gcodeZoffset,0
;   overrideMachineDefinition,1
;   machineTypeOverride,0
;   strokeXoverride,298
;   strokeYoverride,275
;   strokeZoverride,250
;   originOffsetXoverride,0
;   originOffsetYoverride,0
;   originOffsetZoverride,0
;   homeXdirOverride,-1
;   homeYdirOverride,-1
;   homeZdirOverride,-1
;   flipXoverride,1
;   flipYoverride,-1
;   flipZoverride,1
;   toolheadOffsets,0,0|0,0|0,0|0,0|0,0|0,0
;   overrideFirmwareConfiguration,1
;   firmwareTypeOverride,RepRap (Marlin/Repetier/Sprinter)
;   GPXconfigOverride,r2
;   baudRateOverride,115200
;   overridePrinterModels,1
;   printerModelsOverride,LulzBot_TAZ3.stl
;   startingGcode,G28 ; home all axes
;   layerChangeGcode,
;   retractionGcode,
;   toolChangeGcode,
;   endingGcode,M104 S0 ; turn off extruder,M140 S0 ; turn off bed,G28 X0 ; home X axis,G0 Y290 ; move bed forward to present the part for easier removal,M84 ; disable motors,M107 ; turn off fans
;   exportFileFormat,gcode
;   celebration,0
;   celebrationSong,Random Song
;   postProcessing,
;   defaultSpeed,3000
;   outlineUnderspeed,0.5
;   solidInfillUnderspeed,0.8
;   supportUnderspeed,0.8
;   rapidXYspeed,7200
;   rapidZspeed,1000
;   minBridgingArea,50
;   bridgingExtraInflation,0
;   bridgingExtrusionMultiplier,1
;   bridgingSpeedMultiplier,1
;   useFixedBridgingAngle,0
;   fixedBridgingAngle,0
;   applyBridgingToPerimeters,0
;   filamentDiameters,2.85|3|3|3|3|3
;   filamentPricesPerKg,22|46|46|46|46|46
;   filamentDensities,1.25|1.25|1.25|1.25|1.25|1.25
;   useMinPrintHeight,0
;   minPrintHeight,0
;   useMaxPrintHeight,1
;   maxPrintHeight,240
;   useDiaphragm,0
;   diaphragmLayerInterval,20
;   robustSlicing,1
;   mergeAllIntoSolid,0
;   onlyRetractWhenCrossingOutline,0
;   retractBetweenLayers,1
;   useRetractionMinTravel,0
;   retractionMinTravel,3
;   retractWhileWiping,0
;   onlyWipeOutlines,1
;   avoidCrossingOutline,0
;   maxMovementDetourFactor,3
;   toolChangeRetractionDistance,12
;   toolChangeExtraRestartDistance,-0.5
;   toolChangeRetractionSpeed,600
;   externalThinWallType,0
;   internalThinWallType,2
;   thinWallAllowedOverlapPercentage,10
;   singleExtrusionMinLength,1
;   singleExtrusionMinPrintingWidthPercentage,50
;   singleExtrusionMaxPrintingWidthPercentage,200
;   singleExtrusionEndpointExtension,0.2
;   horizontalSizeCompensation,0
G90
M82
M106 S255
G4 P500
M106 S128
M140 S80
M190 S80
M104 S225 T0
M109 S225 T0
G28 ; home all axes
; process Process1
; layer 1, Z = 0.162
T0
G92 E0.0000
G1 E-0.9000 F2600
; feature skirt
; tool H0.162 W0.600
G1 Z0.600 F1000
G1 X103.343 Y159.968 F7200
G1 Z0.162 F1000
G1 E0.0000 F2600
G92 E0.0000
G1 X101.000 Y157.625 E0.0510 F390
G1 X101.000 Y118.311 E0.6560
G1 X103.343 Y115.968 E0.7070
G1 X194.657 Y115.968 E2.1122
G1 X197.000 Y118.311 E2.1632
G1 X197.000 Y157.625 E2.7682
G1 X194.657 Y159.968 E2.8192
G1 X103.343 Y159.968 E4.2244
G92 E0.0000
G1 E-0.9000 F2600
G1 Z0.762 F1000
G1 X196.400 Y157.376 F7200
G1 Z0.162 F1000
G1 E0.0000 F2600
G92 E0.0000
G1 X194.408 Y159.368 E0.0433 F390
G1 X103.592 Y159.368 E1.4409
G1 X101.600 Y157.376 E1.4843
G1 X101.600 Y118.560 E2.0816
G1 X103.592 Y116.568 E2.1250
G1 X194.408 Y116.568 E3.5225
G1 X196.400 Y118.560 E3.5659
G1 X196.400 Y157.376 E4.1632
G92 E0.0000
G1 E-0.9000 F2600
G1 Z0.762 F1000
G1 X195.800 Y157.128 F7200
G1 Z0.162 F1000
G1 E0.0000 F2600
G92 E0.0000
G1 X194.160 Y158.768 E0.0357 F390
G1 X103.840 Y158.768 E1.4256
G1 X102.200 Y157.128 E1.4613
G1 X102.200 Y118.808 E2.0510
G1 X103.840 Y117.168 E2.0867
G1 X194.160 Y117.168 E3.4766
G1 X195.800 Y118.808 E3.5123
G1 X195.800 Y157.128 E4.1020
G92 E0.0000
G1 E-0.9000 F2600
; feature inner perimeter
G1 Z0.762 F1000
G1 X114.807 Y125.969 F7200
G1 Z0.162 F1000
G1 E0.0000 F2600
G92 E0.0000
G1 X115.449 Y125.736 E0.0105 F293
G1 X116.069 Y125.116 E0.0240
G1 X116.314 Y124.202 E0.0386
G1 X116.069 Y123.288 E0.0531
G1 X115.400 Y122.619 E0.0677
G1 X114.989 Y122.509 E0.0742
G1 X115.086 Y121.958 E0.0828
G1 X115.086 Y121.468 E0.0904
G1 X118.588 Y121.468 E0.1443
G1 X118.592 Y122.207 E0.1556
G1 X118.716 Y122.473 E0.1602
G1 X118.011 Y122.802 E0.1721
G1 X117.508 Y123.520 E0.1856
G1 X117.388 Y124.202 E0.1963
G1 X117.508 Y124.884 E0.2069
G1 X118.011 Y125.602 E0.2204
G1 X118.797 Y125.969 E0.2338
G1 X119.678 Y125.979 E0.2473
G1 X120.334 Y125.802 E0.2578
G1 X120.863 Y125.358 E0.2684
G1 X121.176 Y124.817 E0.2780
G1 X121.284 Y124.202 E0.2877
G1 X121.141 Y123.389 E0.3003
G1 X121.660 Y123.026 E0.3101
G1 X122.002 Y122.433 E0.3206
G1 X122.087 Y121.954 E0.3281
G1 X122.084 Y121.468 E0.3356
G1 X127.577 Y121.468 E0.4201
G1 X127.396 Y122.096 E0.4302
G1 X127.341 Y122.582 E0.4377
G1 X127.362 Y122.952 E0.4434
G1 X127.480 Y123.469 E0.4516
G1 X127.712 Y123.950 E0.4598
G1 X127.930 Y124.255 E0.4656
G1 X128.271 Y124.595 E0.4730
G1 X128.573 Y124.809 E0.4787
G1 X129.051 Y125.040 E0.4868
G1 X129.609 Y125.167 E0.4957
G1 X130.140 Y125.167 E0.5038
G1 X130.464 Y125.112 E0.5089
G1 X130.780 Y125.021 E0.5139
G1 X131.258 Y124.791 E0.5221
G1 X131.706 Y124.434 E0.5309
G1 X132.063 Y123.986 E0.5397
G1 X132.293 Y123.507 E0.5479
G1 X132.396 Y123.151 E0.5536
G1 X132.455 Y122.624 E0.5618
G1 X132.396 Y122.097 E0.5700
G1 X132.215 Y121.468 E0.5800
G1 X188.136 Y121.468 E1.4406
G1 X187.788 Y122.021 E1.4506
G1 X187.599 Y122.562 E1.4595
G1 X187.539 Y123.092 E1.4677
G1 X187.561 Y123.467 E1.4734
G1 X187.678 Y123.978 E1.4815
G1 X187.927 Y124.494 E1.4903
G1 X188.284 Y124.942 E1.4991
G1 X188.732 Y125.299 E1.5080
G1 X189.249 Y125.548 E1.5168
G1 X189.807 Y125.675 E1.5256
G1 X190.338 Y125.675 E1.5338
G1 X190.704 Y125.613 E1.5395
G1 X191.500 Y125.335 E1.5525
G1 X191.500 Y154.468 E2.0008
G1 X184.829 Y154.468 E2.1034
G1 X185.017 Y153.644 E2.1164
G1 X185.017 Y153.114 E2.1246
G1 X184.955 Y152.748 E2.1303
G1 X184.780 Y152.247 E2.1385
G1 X184.498 Y151.798 E2.1466
G1 X184.251 Y151.522 E2.1523
G1 X183.836 Y151.191 E2.1605
G1 X183.319 Y150.942 E2.1693
G1 X182.802 Y150.824 E2.1775
G1 X182.432 Y150.803 E2.1832
G1 X181.904 Y150.863 E2.1914
G1 X181.364 Y151.052 E2.2002
G1 X180.878 Y151.357 E2.2090
G1 X180.503 Y151.732 E2.2172
G1 X180.288 Y152.034 E2.2229
G1 X180.058 Y152.513 E2.2310
G1 X179.931 Y153.071 E2.2399
G1 X179.931 Y153.602 E2.2480
G1 X179.993 Y153.967 E2.2537
G1 X180.168 Y154.468 E2.2619
G1 X106.500 Y154.468 E3.3956
G1 X106.500 Y140.701 E3.6074
G1 X106.974 Y140.867 E3.6152
G1 X107.544 Y140.931 E3.6240
G1 X108.071 Y140.872 E3.6321
G1 X108.428 Y140.769 E3.6378
G1 X108.906 Y140.539 E3.6460
G1 X109.321 Y140.208 E3.6542
G1 X109.568 Y139.932 E3.6599
G1 X109.827 Y139.518 E3.6674
G1 X109.969 Y139.176 E3.6731
G1 X110.087 Y138.658 E3.6813
G1 X110.087 Y138.085 E3.6901
G1 X109.960 Y137.526 E3.6989
G1 X109.711 Y137.010 E3.7077
G1 X109.380 Y136.595 E3.7159
G1 X109.104 Y136.348 E3.7216
G1 X108.691 Y136.088 E3.7291
G1 X108.348 Y135.947 E3.7348
G1 X107.831 Y135.828 E3.7430
G1 X107.257 Y135.828 E3.7518
G1 X106.500 Y136.001 E3.7638
G1 X106.500 Y121.468 E3.9874
G1 X111.586 Y121.468 E4.0657
G1 X111.586 Y121.932 E4.0728
G1 X111.662 Y122.420 E4.0804
G1 X111.978 Y122.967 E4.0901
G1 X112.525 Y123.426 E4.1011
G1 X112.388 Y124.202 E4.1133
G1 X112.508 Y124.884 E4.1239
G1 X112.971 Y125.545 E4.1363
G1 X113.571 Y125.892 E4.1470
G1 X114.064 Y125.978 E4.1547
G1 X114.807 Y125.969 E4.1661
G92 E0.0000
G1 E-0.9000 F2600
G1 Z0.762 F1000
G1 X114.698 Y125.371 F7200
G1 Z0.162 F1000
G1 E0.0000 F2600
G92 E0.0000
G1 X115.119 Y125.218 E0.0069 F293
G1 X115.531 Y124.805 E0.0159
G1 X115.693 Y124.202 E0.0255
G1 X115.531 Y123.598 E0.0351
G1 X115.089 Y123.157 E0.0447
G1 X114.604 Y123.027 E0.0524
G1 X113.967 Y123.027 E0.0622
G1 X114.430 Y122.225 E0.0765
G1 X114.486 Y121.906 E0.0815
G1 X114.486 Y120.868 E0.0975
G1 X119.184 Y120.868 E0.1698
G1 X119.191 Y122.072 E0.1883
G1 X119.638 Y123.031 E0.2046
G1 X118.939 Y123.031 E0.2153
G1 X118.410 Y123.277 E0.2243
G1 X118.076 Y123.755 E0.2333
G1 X117.997 Y124.202 E0.2403
G1 X118.076 Y124.649 E0.2472
G1 X118.410 Y125.126 E0.2562
G1 X118.934 Y125.370 E0.2651
G1 X119.601 Y125.378 E0.2754
G1 X120.050 Y125.257 E0.2825
G1 X120.397 Y124.966 E0.2895
G1 X120.603 Y124.609 E0.2959
G1 X120.675 Y124.202 E0.3022
G1 X120.596 Y123.755 E0.3092
G1 X120.091 Y123.034 E0.3227
G1 X120.774 Y122.913 E0.3334
G1 X121.207 Y122.610 E0.3415
G1 X121.430 Y122.225 E0.3484
G1 X121.486 Y121.903 E0.3534
G1 X121.481 Y120.868 E0.3694
G1 X128.904 Y120.868 E0.4836
G1 X128.385 Y121.386 E0.4949
G1 X128.229 Y121.606 E0.4990
G1 X128.061 Y121.955 E0.5050
G1 X127.986 Y122.214 E0.5091
G1 X127.943 Y122.599 E0.5151
G1 X127.958 Y122.868 E0.5192
G1 X128.050 Y123.270 E0.5256
G1 X128.230 Y123.643 E0.5319
G1 X128.389 Y123.866 E0.5362
G1 X128.659 Y124.135 E0.5420
G1 X128.879 Y124.291 E0.5462
G1 X129.250 Y124.470 E0.5525
G1 X129.677 Y124.567 E0.5593
G1 X130.090 Y124.567 E0.5656
G1 X130.330 Y124.526 E0.5694
G1 X130.565 Y124.459 E0.5731
G1 X130.936 Y124.280 E0.5795
G1 X131.279 Y124.007 E0.5862
G1 X131.552 Y123.664 E0.5929
G1 X131.731 Y123.293 E0.5993
G1 X131.806 Y123.034 E0.6034
G1 X131.852 Y122.624 E0.6098
G1 X131.806 Y122.214 E0.6161
G1 X131.731 Y121.955 E0.6203
G1 X131.552 Y121.583 E0.6266
G1 X130.981 Y120.868 E0.6407
G1 X189.349 Y120.868 E1.5389
G1 X189.444 Y121.288 E1.5455
G1 X189.076 Y121.465 E1.5518
G1 X188.857 Y121.621 E1.5560
G1 X188.565 Y121.912 E1.5623
G1 X188.332 Y122.283 E1.5691
G1 X188.187 Y122.697 E1.5758
G1 X188.141 Y123.108 E1.5822
G1 X188.157 Y123.382 E1.5864
G1 X188.248 Y123.778 E1.5927
G1 X188.438 Y124.172 E1.5994
G1 X188.711 Y124.515 E1.6061
G1 X189.054 Y124.788 E1.6129
G1 X189.448 Y124.978 E1.6196
G1 X189.875 Y125.075 E1.6263
G1 X190.287 Y125.075 E1.6327
G1 X190.553 Y125.030 E1.6368
G1 X190.943 Y124.894 E1.6432
G1 X191.313 Y124.661 E1.6499
G1 X191.605 Y124.369 E1.6563
G1 X191.724 Y124.202 E1.6594
G1 X192.100 Y124.321 E1.6655
G1 X192.100 Y155.068 E2.1387
G1 X183.512 Y155.068 E2.2708
G1 X184.003 Y154.577 E2.2815
G1 X184.222 Y154.228 E2.2878
G1 X184.326 Y153.979 E2.2920
G1 X184.417 Y153.577 E2.2983
G1 X184.417 Y153.164 E2.3047
G1 X184.372 Y152.899 E2.3088
G1 X184.236 Y152.509 E2.3152
G1 X184.017 Y152.160 E2.3215
G1 X183.837 Y151.959 E2.3257
G1 X183.514 Y151.702 E2.3320
G1 X183.120 Y151.512 E2.3388
G1 X182.718 Y151.420 E2.3451
G1 X182.449 Y151.405 E2.3493
G1 X182.039 Y151.451 E2.3556
G1 X181.625 Y151.596 E2.3624
G1 X181.255 Y151.829 E2.3691
G1 X180.963 Y152.120 E2.3754
G1 X180.807 Y152.340 E2.3796
G1 X180.628 Y152.712 E2.3859
G1 X180.531 Y153.139 E2.3927
G1 X180.531 Y153.551 E2.3990
G1 X180.576 Y153.817 E2.4032
G1 X180.704 Y154.182 E2.4091
G1 X180.834 Y154.418 E2.4133
G1 X181.352 Y155.068 E2.4261
G1 X105.900 Y155.068 E3.5872
G1 X105.900 Y139.634 E3.8247
G1 X106.695 Y140.134 E3.8391
G1 X107.109 Y140.279 E3.8459
G1 X107.544 Y140.328 E3.8526
G1 X107.954 Y140.281 E3.8590
G1 X108.213 Y140.207 E3.8631
G1 X108.585 Y140.028 E3.8695
G1 X108.907 Y139.771 E3.8758
G1 X109.087 Y139.570 E3.8800
G1 X109.293 Y139.242 E3.8859
G1 X109.396 Y138.993 E3.8901
G1 X109.487 Y138.591 E3.8964
G1 X109.487 Y138.153 E3.9032
G1 X109.390 Y137.726 E3.9099
G1 X109.200 Y137.331 E3.9166
G1 X108.943 Y137.009 E3.9230
G1 X108.742 Y136.829 E3.9271
G1 X108.414 Y136.623 E3.9331
G1 X108.165 Y136.520 E3.9372
G1 X107.763 Y136.428 E3.9436
G1 X107.325 Y136.428 E3.9503
G1 X106.898 Y136.526 E3.9571
G1 X106.503 Y136.716 E3.9638
G1 X105.900 Y137.197 E3.9757
G1 X105.900 Y120.868 E4.2270
G1 X112.186 Y120.868 E4.3237
G1 X112.186 Y121.885 E4.3394
G1 X112.238 Y122.217 E4.3445
G1 X112.444 Y122.575 E4.3509
G1 X112.785 Y122.861 E4.3577
G1 X113.557 Y123.068 E4.3700
G1 X113.076 Y123.755 E4.3829
G1 X112.997 Y124.202 E4.3899
G1 X113.076 Y124.649 E4.3969
G1 X113.386 Y125.092 E4.4052
G1 X113.779 Y125.319 E4.4122
G1 X114.113 Y125.378 E4.4174
G1 X114.698 Y125.371 E4.4264
G92 E0.0000
G1 E-0.9000 F2600
G1 Z0.762 F1000
G1 X190.765 Y121.258 F7200
G1 Z0.162 F1000
G1 E0.0000 F2600
G92 E0.0000
G1 X190.878 Y120.868 E0.0063 F293
G1 X192.100 Y120.868 E0.0251
G1 X192.100 Y121.950 E0.0417
G1 X191.738 Y122.077 E0.0476
G1 X191.493 Y121.769 E0.0537
G1 X191.292 Y121.589 E0.0578
G1 X190.765 Y121.258 E0.0674
G92 E0.0000
G1 E-0.9000 F2600
; feature outer perimeter
G1 Z0.762 F1000
G1 X192.700 Y120.268 F7200
G1 Z0.162 F1000
G1 E0.0000 F2600
G92 E0.0000
G1 X192.700 Y155.668 E0.5448 F195
G1 X105.300 Y155.668 E1.8898
G1 X105.300 Y120.268 E2.4345
G1 X192.700 Y120.268 E3.7795
G92 E0.0000
G1 E-0.9000 F2600
G1 Z0.762 F1000
G1 X191.055 Y122.183 F7200
G1 Z0.162 F1000
G1 E0.0000 F2600
G92 E0.0000
G1 X190.930 Y122.070 E0.0026 F195
G1 X190.681 Y121.914 E0.0071
G1 X190.395 Y121.814 E0.0118
G1 X190.094 Y121.780 E0.0164
G1 X189.802 Y121.813 E0.0210
G1 X189.640 Y121.860 E0.0236
G1 X189.382 Y121.983 E0.0280
G1 X189.245 Y122.081 E0.0305
G1 X189.037 Y122.289 E0.0351
G1 X188.876 Y122.545 E0.0397
G1 X188.776 Y122.831 E0.0444
G1 X188.743 Y123.124 E0.0489
G1 X188.753 Y123.296 E0.0516
G1 X188.818 Y123.579 E0.0560
G1 X188.949 Y123.851 E0.0607
G1 X189.138 Y124.088 E0.0654
G1 X189.375 Y124.277 E0.0700
