; G-Code generated by Simplify3D(R) Version 4.1.2
; Jan 15, 2023 at 9:46:06 PM
; Settings Summary
;   processName,Process1
;   applyToModels,Remote_Kill_Switch-2 v1
;   profileName,LulzBot TAZ 5 (modified)
;   profileVersion,2021-08-27 09:31:58
;   baseProfile,
;   printMaterial,PETG
;   printQuality,Medium
;   printExtruders,
;   extruderName,Primary Extruder
;   extruderToolheadNumber,0
;   extruderDiameter,0.5
;   extruderAutoWidth,1
;   extruderWidth,0.6
;   extrusionMultiplier,1.01
;   extruderUseRetract,1
;   extruderRetractionDistance,0.9
;   extruderExtraRestartDistance,0
;   extruderRetractionZLift,0
;   extruderRetractionSpeed,2000
;   extruderUseCoasting,0
;   extruderCoastingDistance,0.2
;   extruderUseWipe,0
;   extruderWipeDistance,5
;   primaryExtruder,0
;   layerHeight,0.2
;   topSolidLayers,4
;   bottomSolidLayers,4
;   perimeterOutlines,3
;   printPerimetersInsideOut,1
;   startPointOption,2
;   startPointOriginX,0
;   startPointOriginY,0
;   sequentialIslands,0
;   spiralVaseMode,0
;   firstLayerHeightPercentage,90
;   firstLayerWidthPercentage,100
;   firstLayerUnderspeed,0.13
;   useRaft,0
;   raftExtruder,0
;   raftTopLayers,2
;   raftBaseLayers,1
;   raftOffset,3
;   raftSeparationDistance,0.25
;   raftTopInfill,100
;   aboveRaftSpeedMultiplier,0.3
;   useSkirt,1
;   skirtExtruder,0
;   skirtLayers,1
;   skirtOutlines,3
;   skirtOffset,2.5
;   usePrimePillar,0
;   primePillarExtruder,999
;   primePillarWidth,12
;   primePillarLocation,7
;   primePillarSpeedMultiplier,1
;   useOozeShield,0
;   oozeShieldExtruder,999
;   oozeShieldOffset,2
;   oozeShieldOutlines,1
;   oozeShieldSidewallShape,1
;   oozeShieldSidewallAngle,30
;   oozeShieldSpeedMultiplier,1
;   infillExtruder,0
;   internalInfillPattern,Full Honeycomb
;   externalInfillPattern,Rectilinear
;   infillPercentage,30
;   outlineOverlapPercentage,15
;   infillExtrusionWidthPercentage,203
;   minInfillLength,5
;   infillLayerInterval,1
;   internalInfillAngles,0,120,-120
;   overlapInternalInfillAngles,0
;   externalInfillAngles,45,-45
;   generateSupport,1
;   supportExtruder,0
;   supportInfillPercentage,20
;   supportExtraInflation,0.2
;   supportBaseLayers,1
;   denseSupportExtruder,0
;   denseSupportLayers,0
;   denseSupportInfillPercentage,30
;   supportLayerInterval,2
;   supportHorizontalPartOffset,0.4
;   supportUpperSeparationLayers,1
;   supportLowerSeparationLayers,1
;   supportType,0
;   supportGridSpacing,4
;   maxOverhangAngle,20
;   supportAngles,0
;   temperatureName,Primary Extruder,Heated Bed
;   temperatureNumber,0,1
;   temperatureSetpointCount,1,1
;   temperatureSetpointLayers,1,1
;   temperatureSetpointTemperatures,230,75
;   temperatureStabilizeAtStartup,1,1
;   temperatureHeatedBed,0,1
;   fanLayers,1,2
;   fanSpeeds,50,100
;   blipFanToFullPower,1
;   adjustSpeedForCooling,1
;   minSpeedLayerTime,15
;   minCoolingSpeedSlowdown,20
;   increaseFanForCooling,0
;   minFanLayerTime,45
;   maxCoolingFanSpeed,100
;   increaseFanForBridging,0
;   bridgingFanSpeed,100
;   use5D,1
;   relativeEdistances,0
;   allowEaxisZeroing,1
;   independentExtruderAxes,0
;   includeM10123,0
;   stickySupport,1
;   applyToolheadOffsets,0
;   gcodeXoffset,0
;   gcodeYoffset,0
;   gcodeZoffset,0
;   overrideMachineDefinition,1
;   machineTypeOverride,0
;   strokeXoverride,298
;   strokeYoverride,275
;   strokeZoverride,250
;   originOffsetXoverride,0
;   originOffsetYoverride,0
;   originOffsetZoverride,0
;   homeXdirOverride,-1
;   homeYdirOverride,-1
;   homeZdirOverride,-1
;   flipXoverride,1
;   flipYoverride,-1
;   flipZoverride,1
;   toolheadOffsets,0,0|0,0|0,0|0,0|0,0|0,0
;   overrideFirmwareConfiguration,1
;   firmwareTypeOverride,RepRap (Marlin/Repetier/Sprinter)
;   GPXconfigOverride,r2
;   baudRateOverride,115200
;   overridePrinterModels,1
;   printerModelsOverride,LulzBot_TAZ3.stl
;   startingGcode,G28 ; home all axes
;   layerChangeGcode,
;   retractionGcode,
;   toolChangeGcode,
;   endingGcode,M104 S0 ; turn off extruder,M140 S0 ; turn off bed,G28 X0 ; home X axis,M84 ; disable motors
;   exportFileFormat,gcode
;   celebration,0
;   celebrationSong,Random Song
;   postProcessing,
;   defaultSpeed,3000
;   outlineUnderspeed,0.5
;   solidInfillUnderspeed,0.8
;   supportUnderspeed,0.8
;   rapidXYspeed,7200
;   rapidZspeed,1000
;   minBridgingArea,50
;   bridgingExtraInflation,0
;   bridgingExtrusionMultiplier,1
;   bridgingSpeedMultiplier,1
;   useFixedBridgingAngle,0
;   fixedBridgingAngle,0
;   applyBridgingToPerimeters,0
;   filamentDiameters,3|3|3|3|3|3
;   filamentPricesPerKg,46|46|46|46|46|46
;   filamentDensities,1.25|1.25|1.25|1.25|1.25|1.25
;   useMinPrintHeight,0
;   minPrintHeight,0
;   useMaxPrintHeight,0
;   maxPrintHeight,0
;   useDiaphragm,0
;   diaphragmLayerInterval,20
;   robustSlicing,1
;   mergeAllIntoSolid,0
;   onlyRetractWhenCrossingOutline,1
;   retractBetweenLayers,1
;   useRetractionMinTravel,0
;   retractionMinTravel,3
;   retractWhileWiping,0
;   onlyWipeOutlines,1
;   avoidCrossingOutline,0
;   maxMovementDetourFactor,3
;   toolChangeRetractionDistance,12
;   toolChangeExtraRestartDistance,-0.5
;   toolChangeRetractionSpeed,600
;   externalThinWallType,0
;   internalThinWallType,2
;   thinWallAllowedOverlapPercentage,10
;   singleExtrusionMinLength,1
;   singleExtrusionMinPrintingWidthPercentage,50
;   singleExtrusionMaxPrintingWidthPercentage,200
;   singleExtrusionEndpointExtension,0.2
;   horizontalSizeCompensation,0
G90
M82
M106 S255
G4 P500
M106 S128
M140 S75
M190 S75
M104 S230 T0
M109 S230 T0
G28 ; home all axes
; process Process1
; layer 1, Z = 0.180
T0
G92 E0.0000
G1 E-0.9000 F2000
; feature skirt
; tool H0.180 W0.600
G1 Z0.180 F1000
G1 X107.242 Y27.628 F7200
G1 E0.0000 F2000
G92 E0.0000
G1 X109.585 Y25.284 E0.0511 F390
G1 X117.739 Y25.284 E0.1770
G1 X119.242 Y26.788 E0.2098
G1 X119.242 Y23.628 E0.2585
G1 X121.585 Y21.284 E0.3097
G1 X181.739 Y21.284 E1.2379
G1 X184.082 Y23.628 E1.2891
G1 X184.082 Y67.781 E1.9704
G1 X181.739 Y70.124 E2.0216
G1 X113.585 Y70.124 E3.0733
G1 X111.242 Y67.781 E3.1244
G1 X111.242 Y38.124 E3.5821
G1 X109.585 Y38.124 E3.6077
G1 X107.242 Y35.781 E3.6588
G1 X107.242 Y27.628 E3.7846
G92 E0.0000
G1 E-0.9000 F2000
G1 X107.842 Y27.876 F7200
G1 E0.0000 F2000
G92 E0.0000
G1 X109.834 Y25.884 E0.0435 F390
G1 X117.490 Y25.884 E0.1616
G1 X119.482 Y27.876 E0.2051
G1 X119.482 Y29.884 E0.2361
G1 X119.842 Y29.884 E0.2416
G1 X119.842 Y23.876 E0.3344
G1 X121.834 Y21.884 E0.3778
G1 X181.490 Y21.884 E1.2984
G1 X183.482 Y23.876 E1.3419
G1 X183.482 Y67.533 E2.0156
G1 X181.490 Y69.524 E2.0590
G1 X113.834 Y69.524 E3.1031
G1 X111.842 Y67.533 E3.1466
G1 X111.842 Y37.524 E3.6096
G1 X109.834 Y37.524 E3.6406
G1 X107.842 Y35.533 E3.6841
G1 X107.842 Y27.876 E3.8023
G92 E0.0000
G1 E-0.9000 F2000
G1 X108.442 Y28.125 F7200
G1 E0.0000 F2000
G92 E0.0000
G1 X110.082 Y26.484 E0.0358 F390
G1 X117.242 Y26.484 E0.1463
G1 X118.882 Y28.125 E0.1821
G1 X118.882 Y30.484 E0.2185
G1 X120.442 Y30.484 E0.2426
G1 X120.442 Y24.125 E0.3407
G1 X122.082 Y22.484 E0.3765
G1 X181.242 Y22.484 E1.2894
G1 X182.882 Y24.125 E1.3252
G1 X182.882 Y67.284 E1.9913
G1 X181.242 Y68.924 E2.0270
G1 X114.082 Y68.924 E3.0634
G1 X112.442 Y67.284 E3.0992
G1 X112.442 Y36.924 E3.5677
G1 X110.082 Y36.924 E3.6041
G1 X108.442 Y35.284 E3.6399
G1 X108.442 Y28.125 E3.7504
G92 E0.0000
G1 E-0.9000 F2000
; feature support
G1 X111.552 Y30.104 F7200
G1 E0.0000 F2000
G92 E0.0000
G1 X115.772 Y30.104 E0.0651 F312
G1 X115.772 Y30.704 E0.0744
G1 X111.552 Y30.704 E0.1395
G1 X111.552 Y31.304 E0.1488
G1 X115.772 Y31.304 E0.2139
G1 X115.772 Y31.904 E0.2231
G1 X111.552 Y31.904 E0.2883
G1 X111.552 Y32.504 E0.2975
G1 X115.772 Y32.504 E0.3626
G1 X115.772 Y33.104 E0.3719
G1 X111.552 Y33.104 E0.4370
G1 X111.552 Y33.704 E0.4463
G1 X115.772 Y33.704 E0.5114
G92 E0.0000
G1 E-0.9000 F2000
G1 X123.552 Y25.904 F7200
G1 E0.0000 F2000
G92 E0.0000
G1 X179.772 Y25.904 E0.8676 F312
G1 X179.772 Y26.504 E0.8768
G1 X123.552 Y26.504 E1.7444
G1 X123.552 Y27.104 E1.7537
G1 X179.772 Y27.104 E2.6212
G1 X179.772 Y27.704 E2.6305
G1 X123.552 Y27.704 E3.4980
G1 X123.552 Y28.304 E3.5073
G1 X178.228 Y28.304 E4.3510
G1 X178.228 Y28.904 E4.3603
G1 X123.552 Y28.904 E5.2040
G1 X123.552 Y29.504 E5.2133
G1 X178.228 Y29.504 E6.0570
G1 X178.228 Y30.104 E6.0663
G1 X123.552 Y30.104 E6.9100
G1 X123.552 Y30.704 E6.9193
G1 X178.228 Y30.704 E7.7630
G1 X178.228 Y31.304 E7.7723
G1 X123.552 Y31.304 E8.6160
G1 X123.552 Y31.904 E8.6253
G1 X178.228 Y31.904 E9.4690
G1 X178.228 Y32.111 E9.4722
G1 X179.772 Y32.023 E9.4961
G1 X179.772 Y32.504 E9.5035
G1 X123.552 Y32.504 E10.3711
G1 X123.552 Y33.104 E10.3803
G1 X179.772 Y33.104 E11.2479
G1 X179.772 Y33.704 E11.2572
G1 X119.552 Y33.704 E12.1864
G1 X119.552 Y34.304 E12.1957
G1 X159.772 Y34.304 E12.8164
G1 X159.772 Y34.904 E12.8256
G1 X119.552 Y34.904 E13.4463
G1 X119.552 Y35.504 E13.4555
G1 X159.772 Y35.504 E14.0762
G1 X159.772 Y36.104 E14.0855
G1 X119.552 Y36.104 E14.7061
G1 X119.552 Y36.704 E14.7154
G1 X159.772 Y36.704 E15.3361
G1 X159.772 Y37.304 E15.3453
G1 X119.552 Y37.304 E15.9660
G1 X119.552 Y37.594 E15.9704
G1 X115.552 Y37.594 E16.0322
G1 X115.552 Y37.904 E16.0370
G1 X179.772 Y37.904 E17.0280
G1 X179.772 Y38.504 E17.0372
G1 X115.552 Y38.504 E18.0283
G1 X115.552 Y39.104 E18.0375
G1 X179.772 Y39.104 E19.0285
G1 X179.772 Y39.704 E19.0378
G1 X115.552 Y39.704 E20.0288
G1 X115.552 Y40.304 E20.0381
G1 X179.772 Y40.304 E21.0291
G1 X179.772 Y40.904 E21.0384
G1 X115.552 Y40.904 E22.0294
G1 X115.552 Y41.504 E22.0386
G1 X179.772 Y41.504 E23.0297
G1 X179.772 Y42.104 E23.0389
G1 X159.552 Y42.104 E23.3509
G1 X159.552 Y41.814 E23.3554
G1 X155.772 Y41.814 E23.4138
G1 X155.772 Y42.104 E23.4182
G1 X139.552 Y42.104 E23.6685
G1 X139.552 Y41.814 E23.6730
G1 X135.772 Y41.814 E23.7313
G1 X135.772 Y42.104 E23.7358
G1 X115.552 Y42.104 E24.0478
G1 X115.552 Y42.704 E24.0571
G1 X135.772 Y42.704 E24.3691
G1 X135.772 Y43.304 E24.3784
G1 X133.871 Y43.304 E24.4077
G1 X133.871 Y43.075 E24.4113
G1 X132.251 Y43.075 E24.4363
G1 X132.251 Y43.304 E24.4398
G1 X115.552 Y43.304 E24.6975
G1 X115.552 Y43.904 E24.7067
G1 X132.251 Y43.904 E24.9644
G1 X132.251 Y44.504 E24.9737
G1 X115.552 Y44.504 E25.2314
G1 X115.552 Y45.104 E25.2406
G1 X135.772 Y45.104 E25.5527
G1 X135.772 Y45.704 E25.5619
G1 X115.552 Y45.704 E25.8740
G1 X115.552 Y46.304 E25.8832
G1 X131.772 Y46.304 E26.1335
G1 X131.772 Y46.904 E26.1428
G1 X115.552 Y46.904 E26.3931
G1 X115.552 Y47.504 E26.4023
G1 X131.772 Y47.504 E26.6526
G1 X131.772 Y48.104 E26.6619
G1 X115.552 Y48.104 E26.9122
G1 X115.552 Y48.704 E26.9215
G1 X131.772 Y48.704 E27.1718
G1 X131.772 Y49.304 E27.1810
G1 X115.552 Y49.304 E27.4313
G1 X115.552 Y49.904 E27.4406
G1 X179.772 Y49.904 E28.4316
G1 X179.772 Y50.504 E28.4409
G1 X115.552 Y50.504 E29.4319
G1 X115.552 Y51.104 E29.4411
G1 X179.772 Y51.104 E30.4322
G1 X179.772 Y51.704 E30.4414
G1 X115.552 Y51.704 E31.4324
G1 X115.552 Y52.304 E31.4417
G1 X179.772 Y52.304 E32.4327
G1 X179.772 Y52.904 E32.4420
G1 X115.552 Y52.904 E33.4330
G1 X115.552 Y53.504 E33.4423
G1 X179.772 Y53.504 E34.4333
G1 X179.772 Y54.104 E34.4425
G1 X167.552 Y54.104 E34.6311
G1 X167.552 Y53.814 E34.6356
G1 X163.772 Y53.814 E34.6939
G1 X163.772 Y54.104 E34.6984
G1 X131.552 Y54.104 E35.1956
G1 X131.552 Y53.814 E35.2001
G1 X123.772 Y53.814 E35.3201
G1 X123.772 Y54.104 E35.3246
G1 X115.552 Y54.104 E35.4515
G1 X115.552 Y54.704 E35.4607
G1 X123.772 Y54.704 E35.5876
G1 X123.772 Y55.304 E35.5968
G1 X115.552 Y55.304 E35.7237
G1 X115.552 Y55.904 E35.7329
G1 X123.772 Y55.904 E35.8598
G1 X123.772 Y56.504 E35.8691
G1 X115.552 Y56.504 E35.9959
G1 X115.552 Y57.104 E36.0052
G1 X123.772 Y57.104 E36.1320
G1 X123.772 Y57.704 E36.1413
G1 X115.552 Y57.704 E36.2681
G1 X115.552 Y58.304 E36.2774
G1 X123.772 Y58.304 E36.4042
G1 X123.772 Y58.904 E36.4135
G1 X115.552 Y58.904 E36.5403
G1 X115.552 Y59.504 E36.5496
G1 X123.772 Y59.504 E36.6764
G1 X123.772 Y60.104 E36.6857
G1 X115.552 Y60.104 E36.8125
G1 X115.552 Y60.704 E36.8218
G1 X123.772 Y60.704 E36.9487
G1 X123.772 Y61.304 E36.9579
G1 X115.552 Y61.304 E37.0848
G1 X115.552 Y61.904 E37.0940
G1 X179.772 Y61.904 E38.0850
G1 X179.772 Y62.504 E38.0943
G1 X115.552 Y62.504 E39.0853
G1 X115.552 Y63.104 E39.0946
G1 X179.772 Y63.104 E40.0856
G1 X179.772 Y63.704 E40.0949
G1 X115.552 Y63.704 E41.0859
G1 X115.552 Y64.304 E41.0951
G1 X179.772 Y64.304 E42.0862
G1 X179.772 Y64.904 E42.0954
G1 X115.552 Y64.904 E43.0864
G1 X115.552 Y65.504 E43.0957
G1 X179.772 Y65.504 E44.0867
G92 E0.0000
G1 E-0.9000 F2000
G1 X167.552 Y56.504 F7200
G1 E0.0000 F2000
G92 E0.0000
G1 X179.772 Y56.504 E0.1886 F312
G1 X179.772 Y55.904 E0.1978
G1 X167.552 Y55.904 E0.3864
G1 X167.552 Y55.304 E0.3957
G1 X179.772 Y55.304 E0.5842
G1 X179.772 Y54.704 E0.5935
G1 X167.552 Y54.704 E0.7821
G92 E0.0000
G1 E-0.9000 F2000
G1 X171.552 Y49.304 F7200
G1 E0.0000 F2000
G92 E0.0000
G1 X179.772 Y49.304 E0.1268 F312
G1 X179.772 Y48.704 E0.1361
G1 X171.552 Y48.704 E0.2630
G1 X171.552 Y48.104 E0.2722
G1 X179.772 Y48.104 E0.3991
G1 X179.772 Y47.504 E0.4083
G1 X171.552 Y47.504 E0.5352
G1 X171.552 Y46.904 E0.5444
G1 X179.772 Y46.904 E0.6713
G1 X179.772 Y46.304 E0.6805
G1 X171.552 Y46.304 E0.8074
G92 E0.0000
G1 E-0.9000 F2000
G1 X160.371 Y49.304 F7200
G1 E0.0000 F2000
G92 E0.0000
G1 X167.772 Y49.304 E0.1142 F312
G1 X167.772 Y48.704 E0.1235
G1 X160.371 Y48.704 E0.2377
G1 X160.371 Y48.104 E0.2469
G1 X167.772 Y48.104 E0.3611
G1 X167.772 Y47.504 E0.3704
G1 X159.552 Y47.504 E0.4973
G1 X159.552 Y46.904 E0.5065
G1 X167.772 Y46.904 E0.6334
G1 X167.772 Y46.304 E0.6426
G1 X159.552 Y46.304 E0.7695
G1 X159.552 Y45.704 E0.7787
G1 X179.772 Y45.704 E1.0908
G1 X179.772 Y45.104 E1.1000
G1 X159.552 Y45.104 E1.4120
G1 X159.552 Y44.849 E1.4160
G1 X160.371 Y44.849 E1.4286
G1 X160.371 Y44.504 E1.4339
G1 X179.772 Y44.504 E1.7333
G1 X179.772 Y43.904 E1.7426
G1 X160.371 Y43.904 E2.0420
G1 X160.371 Y43.304 E2.0512
G1 X179.772 Y43.304 E2.3506
G1 X179.772 Y42.704 E2.3599
G1 X159.552 Y42.704 E2.6719
G92 E0.0000
G1 E-0.9000 F2000
G1 X153.871 Y43.904 F7200
G1 E0.0000 F2000
G92 E0.0000
G1 X155.772 Y43.904 E0.0293 F312
G1 X155.772 Y44.504 E0.0386
G1 X153.871 Y44.504 E0.0679
G92 E0.0000
G1 E-0.9000 F2000
G1 X163.552 Y37.304 F7200
G1 E0.0000 F2000
G92 E0.0000
G1 X179.772 Y37.304 E0.2503 F312
G1 X179.772 Y36.704 E0.2596
G1 X163.552 Y36.704 E0.5099
G1 X163.552 Y36.104 E0.5191
G1 X179.772 Y36.104 E0.7694
G1 X179.772 Y35.504 E0.7787
G1 X163.552 Y35.504 E1.0290
G1 X163.552 Y34.904 E1.0382
G1 X179.772 Y34.904 E1.2885
G1 X179.772 Y34.304 E1.2978
G1 X163.552 Y34.304 E1.5481
G92 E0.0000
G1 E-0.9000 F2000
G1 X178.342 Y30.104 F7200
G1 E0.0000 F2000
G92 E0.0000
G1 X179.772 Y30.104 E0.0221 F312
G92 E0.0000
G1 E-0.9000 F2000
G1 X179.772 Y28.304 F7200
G1 E0.0000 F2000
G92 E0.0000
G1 X179.712 Y28.304 E0.0009 F312
G92 E0.0000
G1 E-0.9000 F2000
G1 X139.552 Y42.704 F7200
G1 E0.0000 F2000
G92 E0.0000
G1 X155.772 Y42.704 E0.2503 F312
G1 X155.772 Y43.304 E0.2596
G1 X153.871 Y43.304 E0.2889
G1 X153.871 Y43.075 E0.2924
G1 X152.251 Y43.075 E0.3174
G1 X152.251 Y43.304 E0.3210
G1 X140.371 Y43.304 E0.5043
G1 X140.371 Y43.904 E0.5135
G1 X152.251 Y43.904 E0.6969
G1 X152.251 Y44.504 E0.7061
G1 X140.371 Y44.504 E0.8895
G1 X140.371 Y44.849 E0.8948
G1 X139.552 Y44.849 E0.9074
G1 X139.552 Y45.104 E0.9114
G1 X155.772 Y45.104 E1.1617
G1 X155.772 Y45.704 E1.1709
G1 X139.552 Y45.704 E1.4212
G1 X139.552 Y46.304 E1.4305
G1 X151.772 Y46.304 E1.6191
G1 X151.772 Y46.904 E1.6283
G1 X139.552 Y46.904 E1.8169
G1 X139.552 Y47.504 E1.8262
G1 X151.772 Y47.504 E2.0147
G1 X151.772 Y48.104 E2.0240
G1 X140.371 Y48.104 E2.1999
G1 X140.371 Y48.704 E2.2092
G1 X151.772 Y48.704 E2.3851
G1 X151.772 Y49.304 E2.3944
G1 X140.371 Y49.304 E2.5703
G92 E0.0000
G1 E-0.9000 F2000
G1 X133.871 Y44.504 F7200
G1 E0.0000 F2000
G92 E0.0000
G1 X135.772 Y44.504 E0.0293 F312
G1 X135.772 Y43.904 E0.0386
G1 X133.871 Y43.904 E0.0679
G92 E0.0000
G1 E-0.9000 F2000
G1 X131.552 Y54.704 F7200
G1 E0.0000 F2000
G92 E0.0000
G1 X163.772 Y54.704 E0.4972 F312
G1 X163.772 Y55.304 E0.5065
G1 X131.552 Y55.304 E1.0037
G1 X131.552 Y55.904 E1.0129
G1 X163.772 Y55.904 E1.5101
G1 X163.772 Y56.504 E1.5194
