; G-Code generated by Simplify3D(R) Version 4.1.2
; Mar 2, 2023 at 1:21:48 PM
; Settings Summary
;   processName,Process1
;   applyToModels,Remote_Kill_Switch_Droid v1
;   profileName,LulzBot TAZ 5 (modified)
;   profileVersion,2021-08-27 09:31:58
;   baseProfile,
;   printMaterial,PETG
;   printQuality,Medium
;   printExtruders,
;   extruderName,Primary Extruder
;   extruderToolheadNumber,0
;   extruderDiameter,0.5
;   extruderAutoWidth,1
;   extruderWidth,0.6
;   extrusionMultiplier,1.01
;   extruderUseRetract,1
;   extruderRetractionDistance,0.9
;   extruderExtraRestartDistance,0
;   extruderRetractionZLift,0.6
;   extruderRetractionSpeed,2600
;   extruderUseCoasting,0
;   extruderCoastingDistance,0.2
;   extruderUseWipe,0
;   extruderWipeDistance,5
;   primaryExtruder,0
;   layerHeight,0.18
;   topSolidLayers,3
;   bottomSolidLayers,3
;   perimeterOutlines,3
;   printPerimetersInsideOut,1
;   startPointOption,1
;   startPointOriginX,0
;   startPointOriginY,0
;   sequentialIslands,0
;   spiralVaseMode,0
;   firstLayerHeightPercentage,90
;   firstLayerWidthPercentage,100
;   firstLayerUnderspeed,0.13
;   useRaft,0
;   raftExtruder,0
;   raftTopLayers,2
;   raftBaseLayers,1
;   raftOffset,3
;   raftSeparationDistance,0.25
;   raftTopInfill,100
;   aboveRaftSpeedMultiplier,0.3
;   useSkirt,1
;   skirtExtruder,0
;   skirtLayers,1
;   skirtOutlines,3
;   skirtOffset,2.5
;   usePrimePillar,0
;   primePillarExtruder,999
;   primePillarWidth,12
;   primePillarLocation,7
;   primePillarSpeedMultiplier,1
;   useOozeShield,0
;   oozeShieldExtruder,999
;   oozeShieldOffset,2
;   oozeShieldOutlines,1
;   oozeShieldSidewallShape,1
;   oozeShieldSidewallAngle,30
;   oozeShieldSpeedMultiplier,1
;   infillExtruder,0
;   internalInfillPattern,Full Honeycomb
;   externalInfillPattern,Rectilinear
;   infillPercentage,15
;   outlineOverlapPercentage,15
;   infillExtrusionWidthPercentage,203
;   minInfillLength,5
;   infillLayerInterval,1
;   internalInfillAngles,0,120,-120
;   overlapInternalInfillAngles,0
;   externalInfillAngles,45,-45
;   generateSupport,0
;   supportExtruder,0
;   supportInfillPercentage,20
;   supportExtraInflation,0.2
;   supportBaseLayers,1
;   denseSupportExtruder,0
;   denseSupportLayers,0
;   denseSupportInfillPercentage,30
;   supportLayerInterval,2
;   supportHorizontalPartOffset,0.4
;   supportUpperSeparationLayers,1
;   supportLowerSeparationLayers,1
;   supportType,0
;   supportGridSpacing,4
;   maxOverhangAngle,20
;   supportAngles,0
;   temperatureName,Primary Extruder,Heated Bed
;   temperatureNumber,0,1
;   temperatureSetpointCount,1,2
;   temperatureSetpointLayers,1,1,3
;   temperatureSetpointTemperatures,225,80,75
;   temperatureStabilizeAtStartup,1,1
;   temperatureHeatedBed,0,1
;   fanLayers,1,2
;   fanSpeeds,50,75
;   blipFanToFullPower,1
;   adjustSpeedForCooling,1
;   minSpeedLayerTime,15
;   minCoolingSpeedSlowdown,20
;   increaseFanForCooling,0
;   minFanLayerTime,45
;   maxCoolingFanSpeed,100
;   increaseFanForBridging,0
;   bridgingFanSpeed,100
;   use5D,1
;   relativeEdistances,0
;   allowEaxisZeroing,1
;   independentExtruderAxes,0
;   includeM10123,0
;   stickySupport,1
;   applyToolheadOffsets,0
;   gcodeXoffset,0
;   gcodeYoffset,0
;   gcodeZoffset,0
;   overrideMachineDefinition,1
;   machineTypeOverride,0
;   strokeXoverride,298
;   strokeYoverride,275
;   strokeZoverride,250
;   originOffsetXoverride,0
;   originOffsetYoverride,0
;   originOffsetZoverride,0
;   homeXdirOverride,-1
;   homeYdirOverride,-1
;   homeZdirOverride,-1
;   flipXoverride,1
;   flipYoverride,-1
;   flipZoverride,1
;   toolheadOffsets,0,0|0,0|0,0|0,0|0,0|0,0
;   overrideFirmwareConfiguration,1
;   firmwareTypeOverride,RepRap (Marlin/Repetier/Sprinter)
;   GPXconfigOverride,r2
;   baudRateOverride,115200
;   overridePrinterModels,1
;   printerModelsOverride,LulzBot_TAZ3.stl
;   startingGcode,G28 ; home all axes
;   layerChangeGcode,
;   retractionGcode,
;   toolChangeGcode,
;   endingGcode,M104 S0 ; turn off extruder,M140 S0 ; turn off bed,G28 X0 ; home X axis,G0 Y290 ; move bed forward to present the part for easier removal,M84 ; disable motors,M107 ; turn off fans
;   exportFileFormat,gcode
;   celebration,0
;   celebrationSong,Random Song
;   postProcessing,
;   defaultSpeed,3000
;   outlineUnderspeed,0.5
;   solidInfillUnderspeed,0.8
;   supportUnderspeed,0.8
;   rapidXYspeed,7200
;   rapidZspeed,1000
;   minBridgingArea,50
;   bridgingExtraInflation,0
;   bridgingExtrusionMultiplier,1
;   bridgingSpeedMultiplier,1
;   useFixedBridgingAngle,0
;   fixedBridgingAngle,0
;   applyBridgingToPerimeters,0
;   filamentDiameters,2.85|3|3|3|3|3
;   filamentPricesPerKg,22|46|46|46|46|46
;   filamentDensities,1.25|1.25|1.25|1.25|1.25|1.25
;   useMinPrintHeight,0
;   minPrintHeight,0
;   useMaxPrintHeight,1
;   maxPrintHeight,240
;   useDiaphragm,0
;   diaphragmLayerInterval,20
;   robustSlicing,1
;   mergeAllIntoSolid,0
;   onlyRetractWhenCrossingOutline,0
;   retractBetweenLayers,1
;   useRetractionMinTravel,0
;   retractionMinTravel,3
;   retractWhileWiping,0
;   onlyWipeOutlines,1
;   avoidCrossingOutline,0
;   maxMovementDetourFactor,3
;   toolChangeRetractionDistance,12
;   toolChangeExtraRestartDistance,-0.5
;   toolChangeRetractionSpeed,600
;   externalThinWallType,0
;   internalThinWallType,2
;   thinWallAllowedOverlapPercentage,10
;   singleExtrusionMinLength,1
;   singleExtrusionMinPrintingWidthPercentage,50
;   singleExtrusionMaxPrintingWidthPercentage,200
;   singleExtrusionEndpointExtension,0.2
;   horizontalSizeCompensation,0
G90
M82
M106 S255
G4 P500
M106 S191
M140 S80
M190 S80
M104 S225 T0
M109 S225 T0
G28 ; home all axes
; process Process1
; layer 1, Z = 0.342
T0
G92 E0.0000
G1 E-0.9000 F2600
; feature outer perimeter
; tool H0.180 W0.600
G1 Z0.600 F1000
G1 X138.510 Y125.238 F7200
G1 Z0.342 F1000
G1 E0.0000 F2600
G92 E0.0000
G1 X138.550 Y125.238 E0.0007 F300
G1 X138.550 Y125.278 E0.0014
G1 X138.510 Y125.278 E0.0021
G1 X138.510 Y125.238 E0.0027
G92 E0.0000
G1 E-0.9000 F2600
G1 Z0.942 F1000
G1 X141.090 Y125.278 F7200
G1 Z0.342 F1000
G1 E0.0000 F2600
G92 E0.0000
G1 X141.050 Y125.278 E0.0007 F300
G1 X141.050 Y125.238 E0.0014
G1 X141.090 Y125.238 E0.0021
G1 X141.090 Y125.278 E0.0027
G92 E0.0000
G1 E-0.9000 F2600
G1 Z0.942 F1000
G1 X143.630 Y125.238 F7200
G1 Z0.342 F1000
G1 E0.0000 F2600
G92 E0.0000
G1 X143.630 Y125.278 E0.0007 F300
G1 X143.590 Y125.278 E0.0014
G1 X143.590 Y125.238 E0.0021
G1 X143.630 Y125.238 E0.0027
G92 E0.0000
G1 E-0.9000 F2600
G1 Z0.942 F1000
G1 X146.170 Y125.278 F7200
G1 Z0.342 F1000
G1 E0.0000 F2600
G92 E0.0000
G1 X146.130 Y125.278 E0.0007 F300
G1 X146.130 Y125.238 E0.0014
G1 X146.170 Y125.238 E0.0021
G1 X146.170 Y125.278 E0.0027
G92 E0.0000
G1 E-0.9000 F2600
G1 Z0.942 F1000
G1 X148.710 Y125.238 F7200
G1 Z0.342 F1000
G1 E0.0000 F2600
G92 E0.0000
G1 X148.710 Y125.278 E0.0007 F300
G1 X148.670 Y125.278 E0.0014
G1 X148.670 Y125.238 E0.0021
G1 X148.710 Y125.238 E0.0027
G92 E0.0000
G1 E-0.9000 F2600
; layer 2, Z = 0.522
M140 S75
G1 Z0.942 F1000
G1 Z0.522 F1000
G1 E0.0000 F2600
G92 E0.0000
G1 X148.710 Y125.278 E0.0007 F300
G1 X148.670 Y125.278 E0.0014
G1 X148.670 Y125.238 E0.0021
G1 X148.710 Y125.238 E0.0027
G92 E0.0000
G1 E-0.9000 F2600
G1 Z1.122 F1000
G1 X146.130 Y125.238 F7200
G1 Z0.522 F1000
G1 E0.0000 F2600
G92 E0.0000
G1 X146.170 Y125.238 E0.0007 F300
G1 X146.170 Y125.278 E0.0014
G1 X146.130 Y125.278 E0.0021
G1 X146.130 Y125.238 E0.0027
G92 E0.0000
G1 E-0.9000 F2600
G1 Z1.122 F1000
G1 X143.590 Y125.278 F7200
G1 Z0.522 F1000
G1 E0.0000 F2600
G92 E0.0000
G1 X143.590 Y125.238 E0.0007 F300
G1 X143.630 Y125.238 E0.0014
G1 X143.630 Y125.278 E0.0021
G1 X143.590 Y125.278 E0.0027
G92 E0.0000
G1 E-0.9000 F2600
G1 Z1.122 F1000
G1 X141.090 Y125.238 F7200
G1 Z0.522 F1000
G1 E0.0000 F2600
G92 E0.0000
G1 X141.090 Y125.278 E0.0007 F300
G1 X141.050 Y125.278 E0.0014
G1 X141.050 Y125.238 E0.0021
G1 X141.090 Y125.238 E0.0027
G92 E0.0000
G1 E-0.9000 F2600
G1 Z1.122 F1000
G1 X138.510 Y125.278 F7200
G1 Z0.522 F1000
G1 E0.0000 F2600
G92 E0.0000
G1 X138.510 Y125.238 E0.0007 F300
G1 X138.550 Y125.238 E0.0014
G1 X138.550 Y125.278 E0.0021
G1 X138.510 Y125.278 E0.0027
G92 E0.0000
G1 E-0.9000 F2600
; layer 3, Z = 0.702
G1 Z1.122 F1000
G1 X138.550 Y125.278 F7200
G1 Z0.702 F1000
G1 E0.0000 F2600
G92 E0.0000
G1 X138.510 Y125.278 E0.0007 F300
G1 X138.510 Y125.238 E0.0014
G1 X138.550 Y125.238 E0.0021
G1 X138.550 Y125.278 E0.0027
G92 E0.0000
G1 E-0.9000 F2600
G1 Z1.302 F1000
G1 X141.050 Y125.278 F7200
G1 Z0.702 F1000
G1 E0.0000 F2600
G92 E0.0000
G1 X141.050 Y125.238 E0.0007 F300
G1 X141.090 Y125.238 E0.0014
G1 X141.090 Y125.278 E0.0021
G1 X141.050 Y125.278 E0.0027
G92 E0.0000
G1 E-0.9000 F2600
G1 Z1.302 F1000
G1 X143.590 Y125.278 F7200
G1 Z0.702 F1000
G1 E0.0000 F2600
G92 E0.0000
G1 X143.590 Y125.238 E0.0007 F300
G1 X143.630 Y125.238 E0.0014
G1 X143.630 Y125.278 E0.0021
G1 X143.590 Y125.278 E0.0027
G92 E0.0000
G1 E-0.9000 F2600
G1 Z1.302 F1000
G1 X146.130 Y125.238 F7200
G1 Z0.702 F1000
G1 E0.0000 F2600
G92 E0.0000
G1 X146.170 Y125.238 E0.0007 F300
G1 X146.170 Y125.278 E0.0014
G1 X146.130 Y125.278 E0.0021
G1 X146.130 Y125.238 E0.0027
G92 E0.0000
G1 E-0.9000 F2600
G1 Z1.302 F1000
G1 X148.670 Y125.278 F7200
G1 Z0.702 F1000
G1 E0.0000 F2600
G92 E0.0000
G1 X148.670 Y125.238 E0.0007 F300
G1 X148.710 Y125.238 E0.0014
G1 X148.710 Y125.278 E0.0021
G1 X148.670 Y125.278 E0.0027
G92 E0.0000
G1 E-0.9000 F2600
; layer 4, Z = 0.882
G1 Z1.302 F1000
G1 X148.710 Y125.238 F7200
G1 Z0.882 F1000
G1 E0.0000 F2600
G92 E0.0000
G1 X148.710 Y125.278 E0.0007 F300
G1 X148.670 Y125.278 E0.0014
G1 X148.670 Y125.238 E0.0021
G1 X148.710 Y125.238 E0.0027
G92 E0.0000
G1 E-0.9000 F2600
G1 Z1.482 F1000
G1 X146.130 Y125.238 F7200
G1 Z0.882 F1000
G1 E0.0000 F2600
G92 E0.0000
G1 X146.170 Y125.238 E0.0007 F300
G1 X146.170 Y125.278 E0.0014
G1 X146.130 Y125.278 E0.0021
G1 X146.130 Y125.238 E0.0027
G92 E0.0000
G1 E-0.9000 F2600
G1 Z1.482 F1000
G1 X143.590 Y125.278 F7200
G1 Z0.882 F1000
G1 E0.0000 F2600
G92 E0.0000
G1 X143.590 Y125.238 E0.0007 F300
G1 X143.630 Y125.238 E0.0014
G1 X143.630 Y125.278 E0.0021
G1 X143.590 Y125.278 E0.0027
G92 E0.0000
G1 E-0.9000 F2600
G1 Z1.482 F1000
G1 X141.050 Y125.238 F7200
G1 Z0.882 F1000
G1 E0.0000 F2600
G92 E0.0000
G1 X141.090 Y125.238 E0.0007 F300
G1 X141.090 Y125.278 E0.0014
G1 X141.050 Y125.278 E0.0021
G1 X141.050 Y125.238 E0.0027
G92 E0.0000
G1 E-0.9000 F2600
G1 Z1.482 F1000
G1 X138.510 Y125.238 F7200
G1 Z0.882 F1000
G1 E0.0000 F2600
G92 E0.0000
G1 X138.550 Y125.238 E0.0007 F300
G1 X138.550 Y125.278 E0.0014
G1 X138.510 Y125.278 E0.0021
G1 X138.510 Y125.238 E0.0027
G92 E0.0000
G1 E-0.9000 F2600
; layer 5, Z = 1.062
G1 Z1.482 F1000
G1 X138.510 Y125.278 F7200
G1 Z1.062 F1000
G1 E0.0000 F2600
G92 E0.0000
G1 X138.510 Y125.238 E0.0007 F300
G1 X138.550 Y125.238 E0.0014
G1 X138.550 Y125.278 E0.0021
G1 X138.510 Y125.278 E0.0027
G92 E0.0000
G1 E-0.9000 F2600
G1 Z1.662 F1000
G1 X141.050 Y125.238 F7200
G1 Z1.062 F1000
G1 E0.0000 F2600
G92 E0.0000
G1 X141.090 Y125.238 E0.0007 F300
G1 X141.090 Y125.278 E0.0014
G1 X141.050 Y125.278 E0.0021
G1 X141.050 Y125.238 E0.0027
G92 E0.0000
G1 E-0.9000 F2600
G1 Z1.662 F1000
G1 X143.630 Y125.238 F7200
G1 Z1.062 F1000
G1 E0.0000 F2600
G92 E0.0000
G1 X143.630 Y125.278 E0.0007 F300
G1 X143.590 Y125.278 E0.0014
G1 X143.590 Y125.238 E0.0021
G1 X143.630 Y125.238 E0.0027
G92 E0.0000
G1 E-0.9000 F2600
G1 Z1.662 F1000
G1 X146.130 Y125.278 F7200
G1 Z1.062 F1000
G1 E0.0000 F2600
G92 E0.0000
G1 X146.130 Y125.238 E0.0007 F300
G1 X146.170 Y125.238 E0.0014
G1 X146.170 Y125.278 E0.0021
G1 X146.130 Y125.278 E0.0027
G92 E0.0000
G1 E-0.9000 F2600
G1 Z1.662 F1000
G1 X148.670 Y125.238 F7200
G1 Z1.062 F1000
G1 E0.0000 F2600
G92 E0.0000
G1 X148.710 Y125.238 E0.0007 F300
G1 X148.710 Y125.278 E0.0014
G1 X148.670 Y125.278 E0.0021
G1 X148.670 Y125.238 E0.0027
G92 E0.0000
G1 E-0.9000 F2600
; layer 6, Z = 1.242
G1 Z1.662 F1000
G1 X148.670 Y125.278 F7200
G1 Z1.242 F1000
G1 E0.0000 F2600
G92 E0.0000
G1 X148.670 Y125.238 E0.0007 F300
G1 X148.710 Y125.238 E0.0014
G1 X148.710 Y125.278 E0.0021
G1 X148.670 Y125.278 E0.0027
G92 E0.0000
G1 E-0.9000 F2600
G1 Z1.842 F1000
G1 X146.130 Y125.278 F7200
G1 Z1.242 F1000
G1 E0.0000 F2600
G92 E0.0000
G1 X146.130 Y125.238 E0.0007 F300
G1 X146.170 Y125.238 E0.0014
G1 X146.170 Y125.278 E0.0021
G1 X146.130 Y125.278 E0.0027
G92 E0.0000
G1 E-0.9000 F2600
G1 Z1.842 F1000
G1 X143.630 Y125.278 F7200
G1 Z1.242 F1000
G1 E0.0000 F2600
G92 E0.0000
G1 X143.590 Y125.278 E0.0007 F300
G1 X143.590 Y125.238 E0.0014
G1 X143.630 Y125.238 E0.0021
G1 X143.630 Y125.278 E0.0027
G92 E0.0000
G1 E-0.9000 F2600
G1 Z1.842 F1000
G1 X141.050 Y125.278 F7200
G1 Z1.242 F1000
G1 E0.0000 F2600
G92 E0.0000
G1 X141.050 Y125.238 E0.0007 F300
G1 X141.090 Y125.238 E0.0014
G1 X141.090 Y125.278 E0.0021
G1 X141.050 Y125.278 E0.0027
G92 E0.0000
G1 E-0.9000 F2600
G1 Z1.842 F1000
G1 X138.510 Y125.278 F7200
G1 Z1.242 F1000
G1 E0.0000 F2600
G92 E0.0000
G1 X138.510 Y125.238 E0.0007 F300
G1 X138.550 Y125.238 E0.0014
G1 X138.550 Y125.278 E0.0021
G1 X138.510 Y125.278 E0.0027
G92 E0.0000
G1 E-0.9000 F2600
; layer 7, Z = 1.422
; feature inner perimeter
G1 Z1.842 F1000
G1 X112.525 Y123.426 F7200
G1 Z1.422 F1000
G1 E0.0000 F2600
G92 E0.0000
G1 X112.388 Y124.202 E0.0135 F2250
G1 X112.508 Y124.884 E0.0253
G1 X112.971 Y125.545 E0.0391
G1 X113.571 Y125.892 E0.0510
G1 X114.064 Y125.978 E0.0595
G1 X114.807 Y125.969 E0.0722
G1 X115.449 Y125.736 E0.0839
G1 X116.069 Y125.116 E0.0989
G1 X116.314 Y124.202 E0.1151
G1 X116.069 Y123.288 E0.1313
G1 X115.400 Y122.619 E0.1474
G1 X114.989 Y122.509 E0.1547
G1 X115.086 Y121.958 E0.1643
G1 X115.086 Y121.468 E0.1727
G1 X118.588 Y121.468 E0.2325
G1 X118.592 Y122.207 E0.2452
G1 X118.699 Y122.438 E0.2495
G1 X117.971 Y122.858 E0.2639
G1 X117.508 Y123.520 E0.2777
G1 X117.388 Y124.202 E0.2896
G1 X117.508 Y124.884 E0.3014
G1 X117.971 Y125.545 E0.3152
G1 X118.571 Y125.892 E0.3270
G1 X119.064 Y125.978 E0.3356
G1 X119.875 Y125.969 E0.3495
G1 X120.598 Y125.631 E0.3631
G1 X121.087 Y125.049 E0.3761
G1 X121.314 Y124.202 E0.3911
G1 X121.103 Y123.416 E0.4050
G1 X121.660 Y123.026 E0.4167
G1 X122.002 Y122.433 E0.4284
G1 X122.087 Y121.954 E0.4367
G1 X122.084 Y121.468 E0.4450
G1 X127.551 Y121.468 E0.5385
G1 X127.362 Y122.296 E0.5530
G1 X127.341 Y122.666 E0.5593
G1 X127.396 Y123.151 E0.5677
G1 X127.499 Y123.507 E0.5740
G1 X127.729 Y123.986 E0.5831
G1 X128.086 Y124.434 E0.5929
G1 X128.534 Y124.791 E0.6027
G1 X129.051 Y125.040 E0.6125
G1 X129.609 Y125.167 E0.6223
G1 X130.140 Y125.167 E0.6314
G1 X130.464 Y125.112 E0.6370
G1 X130.780 Y125.021 E0.6426
G1 X131.258 Y124.791 E0.6517
G1 X131.706 Y124.434 E0.6615
G1 X132.037 Y124.019 E0.6705
G1 X132.216 Y123.694 E0.6769
G1 X132.391 Y123.193 E0.6860
G1 X132.455 Y122.624 E0.6958
G1 X132.396 Y122.097 E0.7048
G1 X132.215 Y121.468 E0.7160
G1 X188.072 Y121.468 E1.6711
G1 X187.697 Y122.248 E1.6859
G1 X187.594 Y122.605 E1.6923
G1 X187.534 Y123.132 E1.7013
G1 X187.594 Y123.659 E1.7104
G1 X187.697 Y124.015 E1.7168
G1 X187.908 Y124.455 E1.7251
G1 X188.123 Y124.758 E1.7314
G1 X188.498 Y125.133 E1.7405
G1 X188.983 Y125.438 E1.7503
G1 X189.484 Y125.613 E1.7594
G1 X189.850 Y125.675 E1.7657
G1 X190.381 Y125.675 E1.7748
G1 X190.898 Y125.557 E1.7839
G1 X191.500 Y125.308 E1.7950
G1 X191.500 Y154.468 E2.2936
G1 X184.829 Y154.468 E2.4077
G1 X185.017 Y153.644 E2.4221
G1 X185.017 Y153.114 E2.4312
G1 X184.955 Y152.748 E2.4375
G1 X184.780 Y152.247 E2.4466
G1 X184.498 Y151.798 E2.4557
G1 X184.251 Y151.522 E2.4620
G1 X183.836 Y151.191 E2.4711
G1 X183.319 Y150.942 E2.4809
G1 X182.802 Y150.824 E2.4900
G1 X182.474 Y150.806 E2.4956
G1 X182.146 Y150.824 E2.5012
G1 X181.629 Y150.942 E2.5103
G1 X181.112 Y151.191 E2.5201
G1 X180.664 Y151.548 E2.5299
G1 X180.333 Y151.963 E2.5389
G1 X180.154 Y152.287 E2.5453
G1 X179.993 Y152.748 E2.5536
G1 X179.931 Y153.114 E2.5600
G1 X179.931 Y153.644 E2.5691
G1 X180.119 Y154.468 E2.5835
G1 X106.500 Y154.468 E3.8423
G1 X106.500 Y140.701 E4.0777
G1 X106.974 Y140.867 E4.0863
G1 X107.544 Y140.931 E4.0961
G1 X108.114 Y140.867 E4.1059
G1 X108.614 Y140.692 E4.1149
